rospo-icon-theme-classic-common/22x22/places/folder-violet-google-drive.svg

<svg height="22" width="22" xmlns="http://www.w3.org/2000/svg"><rect height="12" opacity=".2" rx="1" width="20" x="1" y="8.5"/><path d="m1 16c0 .554.446 1 1 1h18c .554 0 1-.446 1-1v-11c0-.554-.446-1-1-1h-10v-1c0-.554-.446-1-1-1h-7c-.554 0-1 .446-1 1" fill="#8b58c5"/><rect height="12" opacity=".2" rx="1" width="20" x="1" y="7.5"/><rect fill="#e4e4e4" height="8" rx="1" width="16" x="3" y="6"/><rect fill="#a674de" height="12" rx="1" width="20" x="1" y="8"/><path d="m2 2c-.554 0-1 .446-1 1v .5c0-.554.446-1 1-1h7c .554 0 1 .446 1 1v-.5c0-.554-.446-1-1-1zm8 2v .5h10c .554 0 1 .446 1 1v-.5c0-.554-.446-1-1-1z" fill="#fff" opacity=".1"/><g fill="#3a284d"><path d="m15 14.48-2.667-4.48h-2.5831l2.5001 4.48z"/><path d="m10.25 14.97-1.2501 2.03h4.6661l1.334-2.03z"/><path d="m9.4999 10.5-2.4999 4.5 1.3333 2 2.5167-4z"/></g></svg>

<svg xmlns="http://www.w3.org/2000/svg" width="22" height="22" version="1">
 <rect style="opacity:0.2" width="20" height="12" x="1" y="8.5" rx="1" ry="1"/>
 <path style="fill:#8b58c5" d="M 1,16 C 1,16.554 1.446,17 2,17 H 20 C 20.554,17 21,16.554 21,16 V 5 C 21,4.446 20.554,4 20,4 H 10 V 3 C 10,2.446 9.554,2 9,2 H 2 C 1.446,2 1,2.446 1,3"/>
 <rect style="opacity:0.2" width="20" height="12" x="1" y="7.5" rx="1" ry="1"/>
 <rect style="fill:#dcdcdc" width="16" height="8" x="3" y="6" rx="1" ry="1"/>
 <rect style="fill:#a674de" width="20" height="12" x="1" y="8" rx="1" ry="1"/>
 <path style="opacity:0.1;fill:#ffffff" d="M 2,2 C 1.446,2 1,2.446 1,3 V 3.5 C 1,2.946 1.446,2.5 2,2.5 H 9 C 9.554,2.5 10,2.946 10,3.5 V 3 C 10,2.446 9.554,2 9,2 Z M 10,4 V 4.5 H 20 C 20.554,4.5 21,4.946 21,5.5 V 5 C 21,4.446 20.554,4 20,4 Z"/>
 <g>
  <path style="fill:#3a284d" d="M 15,14.48 12.333,10 H 9.7499 L 12.25,14.48 Z"/>
  <path style="fill:#3a284d" d="M 10.25,14.97 8.9999,17 H 13.666 L 15,14.97 Z"/>
  <path style="fill:#3a284d" d="M 9.4999,10.5 7,15 8.3333,17 10.85,13 Z"/>
 </g>
</svg>
